icon/gr/hp.svg

<svg xmlns="http://www.w3.org/2000/svg" viewBox="0 0 24 24" height="1em" width="1em">
  <path fill="#333" fill-rule="evenodd" d="M8.4210347,0.00016035599 L5,15.127022 L7.13818677,15.127022 L10.5590611,0.00016035599 L8.4210347,0.00016035599 Z M17.4142797,8.87313837 L15.9176772,15.0979976 L18.0557037,15.0979976 L19.5523061,8.87313837 L17.4142797,8.87313837 Z M13.7794905,8.87313837 L10.3586161,24 L12.4966425,24 L15.9176772,8.87313837 L13.7794905,8.87313837 Z M10.131552,8.87313837 L8.63478923,15.0979976 L10.7728157,15.0979976 L12.2694181,8.87313837 L10.131552,8.87313837 Z"/>
</svg>

<svg xmlns="http://www.w3.org/2000/svg" width="24" height="24"><path fill="#333" fill-rule="evenodd" d="M8.421 0 5 15.127h2.138L10.56 0H8.421Zm8.993 8.873-1.496 6.225h2.138l1.496-6.225h-2.138Zm-3.635 0L10.36 24h2.138l3.42-15.127H13.78Zm-3.647 0-1.497 6.225h2.138l1.496-6.225h-2.137Z"/></svg>
